X:1
T:Title
%%score { ( 1 2 5 ) | ( 3 4 ) }
L:1/8
Q:1/4=115
M:4/4
K:Eb
V:1 treble nm="Church Organ"
V:2 treble 
V:5 treble 
V:3 bass 
V:4 bass 
V:1
 z4 z2 BA | G2 GF [G,EG]2 [G,G]F | [B,DG]3 [A,DF] E2 E2 | F2 F2 B2 BA | G6 B2 | c4 z4 | %6
 [G,DG]3 [CEA] [B,EB]2 e2 | c4 z4 | [G,E]6 z2 |] %9
V:2
 z4 z2 F2 | z4 z2 E2 | x8 | z4 z2 D2 | x8 | z2 z B AGFE | x8 | z2 z A [CEF]2 .[B,DF]2 | x8 |] %9
V:3
 z4 z2 [D,B,]2 | [E,B,E]2 [E,E]-[E,A,E] E,2 z A, | B,,3 B,, [C,G,C]2 [G,B,]2 | %3
 [A,CE]2 [A,CE]2 [F,CE]2 [B,,B,]2 | [E,B,E]6 [G,B,E]2 | [A,E]2 [E,G,]2 [F,C]2 [C,G,C]2 | %6
 B,,3 A,, G,,2 [G,B,E]2 | [A,CE]2 [F,C]2 A,,2 z A, | E,6 z2 |] %9
V:4
 x8 | z2 .B,2 z2 C,2 | x8 | x8 | x8 | x8 | x8 | z4 z2 B,,2 | x8 |] %9
V:5
 x8 | x8 | x8 | x8 | x8 | z2 E2 z4 | x8 | z2 E2 z4 | x8 |] %9

